svg/SJJB-OpenStreetMapIcons/poi/point_of_interest.svg

<?xml version="1.0" encoding="UTF-8" standalone="no"?>
<!-- Created with Inkscape (http://www.inkscape.org/) -->
<svg
   xmlns:dc="http://purl.org/dc/elements/1.1/"
   xmlns:cc="http://creativecommons.org/ns#"
   xmlns:rdf="http://www.w3.org/1999/02/22-rdf-syntax-ns#"
   xmlns:svg="http://www.w3.org/2000/svg"
   xmlns="http://www.w3.org/2000/svg"
   xmlns:sodipodi="http://sodipodi.sourceforge.net/DTD/sodipodi-0.dtd"
   xmlns:inkscape="http://www.inkscape.org/namespaces/inkscape"
   version="1.0"
   width="580"
   height="580"
   id="svg2"
   sodipodi:version="0.32"
   inkscape:version="0.46"
   sodipodi:docname="point_of_interest.svg"
   sodipodi:docbase="s:\Data\FacilityIcons"
   inkscape:output_extension="org.inkscape.output.svg.inkscape">
  <metadata
     id="metadata2975">
    <rdf:RDF>
      <cc:Work
         rdf:about="">
        <dc:format>image/svg+xml</dc:format>
        <dc:type
           rdf:resource="http://purl.org/dc/dcmitype/StillImage" />
			  <cc:license
           rdf:resource="http://web.resource.org/cc/PublicDomain" />
        <dc:language>en</dc:language>
      </cc:Work>
    </rdf:RDF>
  </metadata>
  <sodipodi:namedview
     inkscape:window-height="947"
     inkscape:window-width="1048"
     inkscape:pageshadow="2"
     inkscape:pageopacity="0.0"
     guidetolerance="10.0"
     gridtolerance="10.0"
     objecttolerance="10.0"
     borderopacity="1.0"
     bordercolor="#666666"
     pagecolor="#ffffff"
     id="base"
     inkscape:zoom="0.92167712"
     inkscape:cx="301.5186"
     inkscape:cy="281.19503"
     inkscape:window-x="91"
     inkscape:window-y="25"
     inkscape:current-layer="svg2"
     showgrid="false" />
  <defs
     id="defs4">
    <inkscape:perspective
       sodipodi:type="inkscape:persp3d"
       inkscape:vp_x="0 : 290 : 1"
       inkscape:vp_y="0 : 1000 : 0"
       inkscape:vp_z="580 : 290 : 1"
       inkscape:persp3d-origin="290 : 193.33333 : 1"
       id="perspective2441" />
    <inkscape:perspective
       id="perspective3452"
       inkscape:persp3d-origin="30 : 20 : 1"
       inkscape:vp_z="60 : 30 : 1"
       inkscape:vp_y="0 : 1000 : 0"
       inkscape:vp_x="0 : 30 : 1"
       sodipodi:type="inkscape:persp3d" />
    <symbol
       viewBox="244.5 110 489 219.9"
       id="symbol-university">
      <path
         id="path4460"
         d="M79,43l57,119c0,0,21-96,104-96s124,106,124,106l43-133l82-17L0,17L79,43z" />
      <path
         id="path4462"
         d="M94,176l-21,39"
         stroke-width="20"
         stroke="#000000"
         fill="none" />
      <path
         id="path4464"
         d="M300,19c0,10.5-22.6,19-50.5,19S199,29.5,199,19s22.6-19,50.5-19S300,8.5,300,19z" />
      <path
         id="path4466"
         d="M112,216l-16-38L64,88c0,0-9-8-4-35s16-24,16-24"
         stroke-width="20"
         stroke="#000000"
         ill="none" />
    </symbol>
    <inkscape:perspective
       id="perspective4471"
       inkscape:persp3d-origin="372.04724 : 350.78739 : 1"
       inkscape:vp_z="744.09448 : 526.18109 : 1"
       inkscape:vp_y="0 : 1000 : 0"
       inkscape:vp_x="0 : 526.18109 : 1"
       sodipodi:type="inkscape:persp3d" />
    <inkscape:perspective
       id="perspective4668"
       inkscape:persp3d-origin="6 : 4 : 1"
       inkscape:vp_z="12 : 6 : 1"
       inkscape:vp_y="0 : 1000 : 0"
       inkscape:vp_x="0 : 6 : 1"
       sodipodi:type="inkscape:persp3d" />
  </defs>
  <g
     id="g1327">
    <path
       d="M 66.275,1.768 C 24.94,1.768 1.704,23.139 1.704,66.804 L 1.704,516.927 C 1.704,557.771 22.599,579.156 63.896,579.156 L 515.92,579.156 C 557.227,579.156 578.149,558.841 578.149,516.927 L 578.149,66.804 C 578.149,24.203 557.227,1.768 514.628,1.768 C 514.624,1.768 66.133,1.625 66.275,1.768 z "
       style="fill:#111;stroke:#eee;stroke-width:3.40799999"
       id="path1329" />
  </g>
  <g
     id="layer3"
     inkscape:label="Layout"
     style="display:none;stroke:#757575;stroke-opacity:1"
     transform="matrix(48.14969,0,0,48.14969,-536.27327,-33.306752)">
    <rect
       style="fill:none;stroke:#757575;stroke-width:0.10000000000000001;stroke-miterlimit:4;stroke-dasharray:none;stroke-opacity:1;display:inline"
       id="rect4134"
       width="10"
       height="10"
       x="1"
       y="1" />
    <rect
       style="fill:none;stroke:#757575;stroke-width:0.10000000000000001;stroke-miterlimit:4;stroke-dasharray:none;stroke-opacity:1;display:inline"
       id="rect4136"
       width="8"
       height="8"
       x="2"
       y="2" />
  </g>
  <path
     transform="matrix(14.685839,0,0,14.685839,569.76584,1146.0639)"
     style="font-size:40px;font-style:normal;font-variant:normal;font-weight:normal;font-stretch:normal;text-align:start;line-height:125%;writing-mode:lr-tb;text-anchor:start;fill:#ffffff;fill-opacity:1;stroke:none;stroke-width:1px;stroke-linecap:butt;stroke-linejoin:miter;stroke-opacity:1;font-family:NPSPICT3;-inkscape-font-specification:NPSPICT3"
     d="M -4.342041,-52.588867 L -8.5021973,-52.62793 L -5.5822754,-55.547852 C -5.2893404,-55.841624 -5.1428562,-56.188304 -5.1428223,-56.587891 C -5.1428562,-56.98827 -5.2895439,-57.328439 -5.5828857,-57.608398 C -5.8762946,-57.888335 -6.2227705,-58.028308 -6.6223145,-58.02832 C -7.0227371,-58.028308 -7.3694165,-57.894845 -7.6623535,-57.62793 L -10.582275,-54.668945 L -10.582275,-58.827881 C -10.582304,-59.228258 -10.722278,-59.575141 -11.002197,-59.86853 C -11.282173,-60.161892 -11.63577,-60.30858 -12.062988,-60.308594 C -12.462592,-60.30858 -12.802354,-60.161892 -13.082275,-59.86853 C -13.362249,-59.575141 -13.502223,-59.228258 -13.502197,-58.827881 L -13.502197,-54.668945 L -16.462402,-57.62793 C -16.729352,-57.894845 -17.062603,-58.028308 -17.462158,-58.02832 C -17.889425,-58.028308 -18.243022,-57.888335 -18.522949,-57.608398 C -18.802917,-57.328439 -18.942891,-56.98827 -18.942871,-56.587891 C -18.942891,-56.188304 -18.796,-55.841624 -18.502197,-55.547852 L -15.582275,-52.588867 L -19.742432,-52.588867 C -20.142841,-52.588861 -20.489521,-52.448887 -20.782471,-52.168945 C -21.075457,-51.888992 -21.221942,-51.548823 -21.221924,-51.148438 C -21.221942,-50.748042 -21.075457,-50.401363 -20.782471,-50.108398 C -20.489521,-49.815426 -20.142841,-49.668942 -19.742432,-49.668945 L -15.582275,-49.668945 L -18.502197,-46.749023 C -18.796,-46.455241 -18.942891,-46.108561 -18.942871,-45.708984 C -18.942891,-45.308595 -18.802917,-44.961712 -18.522949,-44.668335 C -18.243022,-44.374961 -17.889425,-44.228273 -17.462158,-44.228271 C -17.062603,-44.228273 -16.729352,-44.375165 -16.462402,-44.668945 L -13.502197,-47.588867 L -13.502197,-43.468994 C -13.502223,-43.041751 -13.362249,-42.688155 -13.082275,-42.408203 C -12.802354,-42.128259 -12.462592,-41.988285 -12.062988,-41.988281 C -11.63577,-41.988285 -11.282173,-42.128259 -11.002197,-42.408203 C -10.722278,-42.688155 -10.582304,-43.041751 -10.582275,-43.468994 L -10.582275,-47.588867 L -7.6623535,-44.668945 C -7.3694165,-44.375165 -7.0227371,-44.228273 -6.6223145,-44.228271 C -6.195915,-44.228273 -5.8427253,-44.374961 -5.5627441,-44.668335 C -5.28283,-44.961712 -5.1428562,-45.308595 -5.1428223,-45.708984 C -5.1428562,-46.108561 -5.2893404,-46.455241 -5.5822754,-46.749023 L -8.5021973,-49.668945 L -4.342041,-49.668945 C -3.9424993,-49.668942 -3.6027373,-49.815426 -3.3227539,-50.108398 C -3.042842,-50.401363 -2.9028682,-50.748042 -2.902832,-51.148438 C -2.9028682,-51.548823 -3.042842,-51.888992 -3.3227539,-52.168945 C -3.6027373,-52.448887 -3.9424993,-52.588861 -4.342041,-52.588867 L -4.342041,-52.588867 z M -20.183105,-60.708984 L -20.142822,-70.348877 C -20.142841,-70.748429 -20.289529,-71.094905 -20.582886,-71.388306 C -20.87628,-71.681656 -21.222755,-71.828343 -21.622314,-71.828369 C -22.022722,-71.828343 -22.369605,-71.681656 -22.662964,-71.388306 C -22.956356,-71.094905 -23.103043,-70.748429 -23.103027,-70.348877 L -23.103027,-64.268555 L -31.702881,-72.868408 C -31.995857,-73.16135 -32.342536,-73.307834 -32.74292,-73.307861 C -33.142503,-73.307834 -33.482265,-73.16135 -33.762207,-72.868408 C -34.04216,-72.575413 -34.182134,-72.228734 -34.182129,-71.828369 C -34.182134,-71.428767 -34.049077,-71.082088 -33.782959,-70.78833 L -25.183105,-62.188477 L -31.262207,-62.188477 C -31.662605,-62.188461 -32.009488,-62.048487 -32.302856,-61.768555 C -32.596239,-61.488591 -32.742926,-61.135402 -32.74292,-60.708984 C -32.742926,-60.30858 -32.596239,-59.968411 -32.302856,-59.688477 C -32.009488,-59.408515 -31.662605,-59.268542 -31.262207,-59.268555 L -21.622314,-59.268555 C -21.222755,-59.268542 -20.882993,-59.408515 -20.603027,-59.688477 C -20.323098,-59.968411 -20.183124,-60.30858 -20.183105,-60.708984 L -20.183105,-60.708984 z"
     id="flowRoot3192" />
</svg>

<svg xmlns="http://www.w3.org/2000/svg" viewBox="0 0 580 580"><path d="m66.28 1.768c-41.34 0-64.57 21.371-64.57 65.04v450.12c0 40.844 20.895 62.23 62.19 62.23h452.02c41.31 0 62.23-20.315 62.23-62.23v-450.12c0-42.601-20.922-65.04-63.52-65.04-.004 0-448.5-.143-448.35 0z" fill="#111" stroke="#eee" stroke-width="3.408"/><path transform="matrix(14.68584 0 0 14.68584 569.77 1146.06)" d="m-4.342-52.589l-4.16-.039 2.92-2.92c.293-.294.439-.64.439-1.04 0-.4-.147-.741-.44-1.021-.293-.28-.64-.42-1.039-.42-.4 0-.747.133-1.04.4l-2.92 2.959v-4.159c0-.4-.14-.747-.42-1.041-.28-.293-.634-.44-1.061-.44-.4 0-.739.147-1.019.44-.28.293-.42.64-.42 1.041v4.159l-2.96-2.959c-.267-.267-.6-.4-1-.4-.427 0-.781.14-1.061.42-.28.28-.42.62-.42 1.021 0 .4.147.746.441 1.04l2.92 2.959h-4.16c-.4 0-.747.14-1.04.42-.293.28-.439.62-.439 1.021 0 .4.146.747.439 1.04.293.293.64.439 1.04.439h4.16l-2.92 2.92c-.294.294-.441.64-.441 1.04 0 .4.14.747.42 1.041.28.293.634.44 1.061.44.4 0 .733-.147 1-.441l2.96-2.92v4.12c0 .427.14.781.42 1.061.28.28.62.42 1.019.42.427 0 .781-.14 1.061-.42.28-.28.42-.634.42-1.061v-4.12l2.92 2.92c.293.294.64.441 1.04.441.426 0 .78-.147 1.06-.44.28-.293.42-.64.42-1.041 0-.4-.147-.746-.439-1.04l-2.92-2.92h4.16c.4 0 .739-.146 1.019-.439.28-.293.42-.64.42-1.04 0-.4-.14-.741-.42-1.021-.28-.28-.62-.42-1.019-.42m-15.841-8.12l.04-9.64c0-.4-.147-.746-.44-1.039-.293-.293-.64-.44-1.039-.44-.4 0-.747.147-1.041.44-.293.293-.44.64-.44 1.039v6.08l-8.6-8.6c-.293-.293-.64-.439-1.04-.439-.4 0-.739.147-1.019.439-.28.293-.42.64-.42 1.04 0 .4.133.746.399 1.04l8.6 8.6h-6.079c-.4 0-.747.14-1.041.42-.293.28-.44.633-.44 1.06 0 .4.147.741.44 1.021.293.28.64.42 1.041.42h9.64c.4 0 .739-.14 1.019-.42.28-.28.42-.62.42-1.021" fill="#fff"/></svg>
